src/assets/img/emailIcon.svg

<svg width="30" height="30" fill="none" xmlns="http://www.w3.org/2000/svg"><path d="M15 0C6.7 0 0 6.7 0 15s6.7 15 15 15 15-6.7 15-15S23.3 0 15 0Zm9 20.6c0 .5-.4.9-.9.9H7c-.6 0-1-.5-1-1v-9.7l9 4.7 9-4.7v9.8Zm0-10.9-9 4.7-9-4.7v-.2c0-.5.4-1 1-1h16c.6 0 1 .5 1 1v.2Z" fill="#fff"/></svg>

<svg width="30" height="30" viewBox="0 0 30 30" fill="none" xmlns="http://www.w3.org/2000/svg">
<path d="M15 0C6.7 0 0 6.7 0 15C0 23.3 6.7 30 15 30C23.3 30 30 23.3 30 15C30 6.7 23.3 0 15 0ZM24 20.6C24 21.1 23.6 21.5 23.1 21.5H7C6.4 21.5 6 21 6 20.5V10.8L15 15.5L24 10.8V20.6ZM24 9.7L15 14.4L6 9.7V9.5C6 9 6.4 8.5 7 8.5H23C23.6 8.5 24 9 24 9.5V9.7Z" fill="white"/>
</svg>
